app/images/menu.svg

<?xml version="1.0" encoding="UTF-8"?>
<svg width="29px" height="32px" viewBox="0 0 29 32" version="1.1" xmlns="http://www.w3.org/2000/svg" xmlns:xlink="http://www.w3.org/1999/xlink">
    <!-- Generator: Sketch 39.1 (31720) - http://www.bohemiancoding.com/sketch -->
    <title>Page 1</title>
    <desc>Created with Sketch.</desc>
    <defs></defs>
    <g id="Caja---Pantalla-Principal" stroke="none" stroke-width="1" fill="none" fill-rule="evenodd">
        <g id="Desktop-Landscape5" transform="translate(-701.000000, -393.000000)">
            <g id="Page-1" transform="translate(701.000000, 393.000000)">
                <path d="M1.61111111,6.4 L4.83333333,6.4 C5.72266667,6.4 6.44444444,5.6832 6.44444444,4.8 C6.44444444,3.9168 5.72266667,3.2 4.83333333,3.2 L1.61111111,3.2 C0.721777778,3.2 0,3.9168 0,4.8 C0,5.6832 0.721777778,6.4 1.61111111,6.4" id="Fill-1" fill="#000000"></path>
                <path d="M1.61111111,13.8666667 L4.83333333,13.8666667 C5.72266667,13.8666667 6.44444444,13.1498667 6.44444444,12.2666667 C6.44444444,11.3834667 5.72266667,10.6666667 4.83333333,10.6666667 L1.61111111,10.6666667 C0.721777778,10.6666667 0,11.3834667 0,12.2666667 C0,13.1498667 0.721777778,13.8666667 1.61111111,13.8666667" id="Fill-3" fill="#000000"></path>
                <path d="M1.61111111,21.3333333 L4.83333333,21.3333333 C5.72266667,21.3333333 6.44444444,20.6165333 6.44444444,19.7333333 C6.44444444,18.8501333 5.72266667,18.1333333 4.83333333,18.1333333 L1.61111111,18.1333333 C0.721777778,18.1333333 0,18.8501333 0,19.7333333 C0,20.6165333 0.721777778,21.3333333 1.61111111,21.3333333" id="Fill-5" fill="#000000"></path>
                <path d="M6.44444444,27.2 C6.44444444,26.3168 5.72266667,25.6 4.83333333,25.6 L1.61111111,25.6 C0.721777778,25.6 0,26.3168 0,27.2 C0,28.0832 0.721777778,28.8 1.61111111,28.8 L4.83333333,28.8 C5.72266667,28.8 6.44444444,28.0832 6.44444444,27.2" id="Fill-7" fill="#000000"></path>
                <path d="M23.6296296,27.2 C23.6296296,27.4944 23.389037,27.7333333 23.0925926,27.7333333 L22.0185185,27.7333333 C21.7220741,27.7333333 21.4814815,27.4944 21.4814815,27.2 L21.4814815,22.3317333 C21.4814815,21.2085333 21.8445185,20.9504 22.0743704,20.2453333 C22.2204444,19.8016 22.1946667,19.3194667 22.1946667,19.3194667 C22.2816667,17.7397333 21.0658148,17.1072 21.0658148,17.1072 C20.3601481,16.7264 19.7532963,16.3434667 19.9219259,15.1349333 L20.9648519,8.58453333 C21.6007037,4.90026667 22.5115185,3.65013333 23.1752963,3.25226667 C23.2891481,3.184 23.3965556,3.18293333 23.5125556,3.248 C23.6274815,3.312 23.6296296,3.43573333 23.6296296,3.56693333 L23.6296296,27.2 Z M15.7362593,14 C15.5225185,14.1664 15.5633333,14.4661333 15.5697778,14.6496 L15.9822222,26.8853333 C15.9994074,27.4026667 15.5858889,27.7333333 15.0617407,27.7333333 L14.1101111,27.7333333 C13.585963,27.7333333 13.1735185,27.4026667 13.1896296,26.8853333 L13.6031481,14.7253333 C13.6085185,14.5429333 13.6504074,14.2037333 13.4355926,14.0373333 C11.8266296,12.9066667 11.7697037,11.5242667 11.8287778,10.9024 L12.4678519,3.61066667 C12.4882593,3.38133333 12.6815926,3.2064 12.9114444,3.2064 C13.0317407,3.2064 13.1466667,3.2544 13.2304444,3.33973333 C13.3142222,3.42506667 13.3593333,3.54026667 13.3571852,3.6608 L13.2035926,9.6544 C13.2014444,9.7408 13.2347407,9.82506667 13.297037,9.88586667 C13.3582593,9.94666667 13.4431111,9.9808 13.5301111,9.97866667 C13.6976667,9.97546667 13.833,9.8432 13.8405185,9.6768 L14.1036667,3.63413333 C14.1144074,3.39413333 14.3141852,3.2 14.5569259,3.2 L14.6149259,3.2 C14.8587407,3.2 15.0595926,3.39413333 15.0692593,3.63413333 L15.3302593,9.6768 C15.3377778,9.84426667 15.4741852,9.9776 15.6417407,9.97973333 C15.7308889,9.9808 15.8157407,9.94773333 15.8758889,9.88693333 C15.9381852,9.82506667 15.9714815,9.74186667 15.9693333,9.6544 L15.8178889,3.6608 C15.8146667,3.54133333 15.8608519,3.42506667 15.9435556,3.33973333 C16.0273333,3.2544 16.1422593,3.2064 16.2636296,3.2064 C16.4934815,3.2064 16.6868148,3.3824 16.7072222,3.61066667 L17.3452222,10.8832 C17.4032222,11.5050667 17.3462963,12.8682667 15.7362593,14 L15.7362593,14 Z M5.37037037,0 C4.18459259,0 3.22222222,0.955733333 3.22222222,2.13333333 L4.83333333,2.13333333 C6.31340741,2.13333333 7.51851852,3.32906667 7.51851852,4.8 C7.51851852,6.27093333 6.31340741,7.46666667 4.83333333,7.46666667 L3.22222222,7.46666667 L3.22222222,9.6 L4.83333333,9.6 C6.31340741,9.6 7.51851852,10.7957333 7.51851852,12.2666667 C7.51851852,13.7376 6.31340741,14.9333333 4.83333333,14.9333333 L3.22222222,14.9333333 L3.22222222,17.0666667 L4.83333333,17.0666667 C6.31340741,17.0666667 7.51851852,18.2624 7.51851852,19.7333333 C7.51851852,21.2042667 6.31340741,22.4 4.83333333,22.4 L3.22222222,22.4 L3.22222222,24.5333333 L4.83333333,24.5333333 C6.31340741,24.5333333 7.51851852,25.7290667 7.51851852,27.2 C7.51851852,28.6709333 6.31340741,29.8666667 4.83333333,29.8666667 L3.22222222,29.8666667 C3.22222222,31.0442667 4.18459259,32 5.37037037,32 L29,32 L29,0 L5.37037037,0 Z" id="Fill-9" fill="#6D8465"></path>
            </g>
        </g>
    </g>
</svg>

<?xml version="1.0" encoding="utf-8"?>
<!-- Generator: Adobe Illustrator 21.1.0, SVG Export Plug-In . SVG Version: 6.00 Build 0)  -->
<svg version="1.1" id="Capa_1" xmlns="http://www.w3.org/2000/svg" xmlns:xlink="http://www.w3.org/1999/xlink" x="0px" y="0px"
	 viewBox="0 0 29 32" style="enable-background:new 0 0 29 32;" xml:space="preserve">
<style type="text/css">
	.st0{fill:none;}
	.st1{fill:#FFFFFF;}
</style>
<title>Page 1</title>
<desc>Created with Sketch.</desc>
<g id="Caja---Pantalla-Principal">
	<g id="Desktop-Landscape5" transform="translate(-701.000000, -393.000000)">
		<g id="Page-1" transform="translate(701.000000, 393.000000)">
			<path id="Fill-1" class="st0" d="M1.6,6.4h3.2c0.9,0,1.6-0.7,1.6-1.6S5.7,3.2,4.8,3.2H1.6C0.7,3.2,0,3.9,0,4.8S0.7,6.4,1.6,6.4"
				/>
			<path id="Fill-3" class="st0" d="M1.6,13.9h3.2c0.9,0,1.6-0.7,1.6-1.6c0-0.9-0.7-1.6-1.6-1.6H1.6c-0.9,0-1.6,0.7-1.6,1.6
				C0,13.1,0.7,13.9,1.6,13.9"/>
			<path id="Fill-5" class="st0" d="M1.6,21.3h3.2c0.9,0,1.6-0.7,1.6-1.6s-0.7-1.6-1.6-1.6H1.6c-0.9,0-1.6,0.7-1.6,1.6
				S0.7,21.3,1.6,21.3"/>
			<path id="Fill-7" class="st0" d="M6.4,27.2c0-0.9-0.7-1.6-1.6-1.6H1.6c-0.9,0-1.6,0.7-1.6,1.6c0,0.9,0.7,1.6,1.6,1.6h3.2
				C5.7,28.8,6.4,28.1,6.4,27.2"/>
			<path id="Fill-9" class="st1" d="M23.6,27.2c0,0.3-0.2,0.5-0.5,0.5H22c-0.3,0-0.5-0.2-0.5-0.5v-4.9c0-1.1,0.4-1.4,0.6-2.1
				c0.1-0.4,0.1-0.9,0.1-0.9c0.1-1.6-1.1-2.2-1.1-2.2c-0.7-0.4-1.3-0.8-1.1-2l1-6.6c0.6-3.7,1.5-4.9,2.2-5.3c0.1-0.1,0.2-0.1,0.3,0
				c0.1,0.1,0.1,0.2,0.1,0.3V27.2z M15.7,14c-0.2,0.2-0.2,0.5-0.2,0.6L16,26.9c0,0.5-0.4,0.8-0.9,0.8h-1c-0.5,0-0.9-0.3-0.9-0.8
				l0.4-12.2c0-0.2,0-0.5-0.2-0.7c-1.6-1.1-1.7-2.5-1.6-3.1l0.6-7.3c0-0.2,0.2-0.4,0.4-0.4c0.1,0,0.2,0,0.3,0.1
				c0.1,0.1,0.1,0.2,0.1,0.3l-0.2,6c0,0.1,0,0.2,0.1,0.2c0.1,0.1,0.1,0.1,0.2,0.1c0.2,0,0.3-0.1,0.3-0.3l0.3-6
				c0-0.2,0.2-0.4,0.5-0.4h0.1c0.2,0,0.4,0.2,0.5,0.4l0.3,6c0,0.2,0.1,0.3,0.3,0.3c0.1,0,0.2,0,0.2-0.1C15.9,9.8,16,9.7,16,9.7
				l-0.2-6c0-0.1,0-0.2,0.1-0.3c0.1-0.1,0.2-0.1,0.3-0.1c0.2,0,0.4,0.2,0.4,0.4l0.6,7.3C17.4,11.5,17.3,12.9,15.7,14L15.7,14z
				 M5.4,0C4.2,0,3.2,1,3.2,2.1h1.6c1.5,0,2.7,1.2,2.7,2.7S6.3,7.5,4.8,7.5H3.2v2.1h1.6c1.5,0,2.7,1.2,2.7,2.7s-1.2,2.7-2.7,2.7H3.2
				v2.1h1.6c1.5,0,2.7,1.2,2.7,2.7s-1.2,2.7-2.7,2.7H3.2v2.1h1.6c1.5,0,2.7,1.2,2.7,2.7c0,1.5-1.2,2.7-2.7,2.7H3.2
				c0,1.2,1,2.1,2.1,2.1H29V0H5.4z"/>
		</g>
	</g>
</g>
</svg>
